X:484
T:Polska efter Werner Wernberg
Z:Jack Campin, http://www.campin.me.uk/
F:Jack Campin's Nine-Note Tunebook
% last edit 03-02-2013
Z:ABC-transkribering + frslag till arr av Lennart Sohlman
S:http://www.folkwiki.se
M:3/4
L:1/8
Q:1/4=102
N:original in D minor; also works in F minor
K:GMin
D2 ^FD/F/ G2| D2   (Ac) (BA)|G>A Bd    B(A/G/)|(^F/G/)A/B/ (AG) FD|
D2 ^FD/F/ G2| D2   (Ac) (BA)|G>A Bd    B(A/G/)|(^F/G/)A/F/  G4   :|
D2  d2    d2|^cA/c/ d3    A |B>d cA/c/ BA/G/  |(^F/G/)A/B/ (AG) FD|
D2  d2    d2|^cA/c/ d3    A |B>d cA/c/ BA/G/  |(^F/G/)A/F/  G4   :|

